X: 200
T: The Humours Of Tullycrine
R: hornpipe
M: 4/4
L: 1/8
K:Ador
"Am"EAAB cBcd|eaag e2dB|c2Ac "G"BAGA|Bdde dBAG|
"Am"EAAB cBcd|eaag e2dB|c2Ac "G"BAGA|1"Am"BAAG A3 G:|2BAAG A2Bd||
|:"Am"eaab aged|eaab aged|"Am7"egga "G"ged2|"Am7"(3efg fa "G"gedB|
"Am"~A3B ~c3d|eaag e2dB|c2Ac "G"BAGA|1"Am"BAAG A2Bd:|2BAAG A4|]

